assets/2023/icons/terraform_dark.svg

<!-- Copyright 2000-2022 JetBrains s.r.o. and contributors. Use of this source code is governed by the Apache 2.0 license. -->
<svg width="16" height="16" viewBox="0 0 16 16" fill="none" xmlns="http://www.w3.org/2000/svg">
<path fill-rule="evenodd" clip-rule="evenodd" d="M5.94995 3.1424L10.0498 5.51002V10.2453L5.94995 7.87766V3.1424Z" fill="#B99BF8"/>
<path fill-rule="evenodd" clip-rule="evenodd" d="M10.4985 5.51002V10.2453L14.6006 7.87766V3.1424L10.4985 5.51002Z" fill="#B99BF8"/>
<path fill-rule="evenodd" clip-rule="evenodd" d="M1.39941 0.5V5.23526L5.4993 7.60289V2.86763L1.39941 0.5Z" fill="#B99BF8"/>
<path fill-rule="evenodd" clip-rule="evenodd" d="M5.94995 13.1324L10.0498 15.5V10.7948V10.7647L5.94995 8.39709V13.1324Z" fill="#B99BF8"/>
</svg>

<svg xmlns="http://www.w3.org/2000/svg" width="16" height="16" fill="none" viewBox="0 0 16 16"><path fill="#B99BF8" fill-rule="evenodd" d="m5.95 3.142 4.1 2.368v4.735l-4.1-2.367zm4.549 2.368v4.735L14.6 7.878V3.142zM1.4.5v4.735l4.1 2.368V2.868zm4.55 12.632 4.1 2.368v-4.735l-4.1-2.368z" clip-rule="evenodd"/></svg>
